neru-light-classic/32x32/apps/serviio.svg

<?xml version="1.0" encoding="UTF-8" standalone="no"?>
<svg
   xmlns:dc="http://purl.org/dc/elements/1.1/"
   xmlns:cc="http://creativecommons.org/ns#"
   xmlns:rdf="http://www.w3.org/1999/02/22-rdf-syntax-ns#"
   xmlns:svg="http://www.w3.org/2000/svg"
   xmlns="http://www.w3.org/2000/svg"
   xmlns:sodipodi="http://sodipodi.sourceforge.net/DTD/sodipodi-0.dtd"
   xmlns:inkscape="http://www.inkscape.org/namespaces/inkscape"
   height="32"
   width="32"
   version="1"
   id="svg10"
   sodipodi:docname="serviio.svg"
   inkscape:version="0.92.1 r">
  <metadata
     id="metadata16">
    <rdf:RDF>
      <cc:Work
         rdf:about="">
        <dc:format>image/svg+xml</dc:format>
        <dc:type
           rdf:resource="http://purl.org/dc/dcmitype/StillImage" />
      </cc:Work>
    </rdf:RDF>
  </metadata>
  <defs
     id="defs14" />
  <sodipodi:namedview
     pagecolor="#ffffff"
     bordercolor="#666666"
     borderopacity="1"
     objecttolerance="10"
     gridtolerance="10"
     guidetolerance="10"
     inkscape:pageopacity="0"
     inkscape:pageshadow="2"
     inkscape:window-width="640"
     inkscape:window-height="480"
     id="namedview12"
     showgrid="false"
     inkscape:zoom="9.5"
     inkscape:cx="-24.105263"
     inkscape:cy="16"
     inkscape:current-layer="svg10" />
  <rect
     style="opacity:1;fill:#f4b400;fill-opacity:1;fill-rule:evenodd;stroke:none;stroke-width:1.03534329;stroke-linecap:round;stroke-linejoin:bevel;stroke-miterlimit:4;stroke-dasharray:none;stroke-dashoffset:0;stroke-opacity:1"
     id="rect4497-3"
     width="28.203388"
     height="28.203388"
     x="1.8983059"
     y="1.8983059"
     ry="5.575182"
     inkscape:export-filename="/home/ramil/3.png"
     inkscape:export-xdpi="71"
     inkscape:export-ydpi="71" />
  <path
     d="M 16.0002,6.9999998 A 9,9 0 0 0 7.5373,13 H 5.0002 l 2,3 2,3 2,-3 2,-3 h -2.1836 a 6,6 0 0 1 5.184,-3.0000002 6,6 0 0 1 5.656,4.0180002 l 1.344,-2.018 1.922,2.883 a 9,9 0 0 0 -8.922,-7.8830002 z m 7,6.0000002 -2,3 -2,3 h 2.1836 a 6,6 0 0 1 -5.184,3 6,6 0 0 1 -5.656,-4.018 L 8.9998,20 7.0779,17.117 a 9,9 0 0 0 8.9219,7.883 9,9 0 0 0 8.463,-6 h 2.537 l -2,-3 -2,-3 z"
     id="path8"
     inkscape:connector-curvature="0"
     style="fill:#ffffff" />
</svg>

<svg xmlns="http://www.w3.org/2000/svg" height="32" width="32" version="1"><rect width="28.203" height="28.203" x="1.898" y="1.898" ry="5.575" fill="#f4b400" fill-rule="evenodd"/><path d="M16 7a9 9 0 0 0-8.463 6H5l2 3 2 3 2-3 2-3h-2.183A6 6 0 0 1 16 10a6 6 0 0 1 5.656 4.018L23 12l1.922 2.883A9 9 0 0 0 16 7zm7 6l-2 3-2 3h2.184A6 6 0 0 1 16 22a6 6 0 0 1-5.656-4.018L9 20l-1.922-2.883A9 9 0 0 0 16 25a9 9 0 0 0 8.463-6H27l-2-3-2-3z" fill="#fff"/></svg>
